X:1
T:Chicken Reel
C:traditional
L:1/8
M:4/4
I:linebreak $
K:D
V:1 treble
V:1
 =f2 |"D" fdAF DFBF | AFBF A2 =f2 | fdAF DFBF |"A" Adce "D"d2 =f2 |$
 fdAF DFBF | AFBF A2 =f2 | fdAF DFBF |"A" Adce "D"d2 =f2 |$
 f2 af d2 fd | Adfd ed =f2 | f2 af d2 fd |"A" A d2 c "D"d2 =f2 |$
 f2 af d2 fd | Adfd ed =f2 | f2 af d2 fd |"A" A d2 c "D"d2 =f2 |]
